kit/img/logo.svg

<svg width="32" height="32" viewBox="0 0 32 32" fill="none" xmlns="http://www.w3.org/2000/svg">
	<g clip-path="url(#clip0)">
		<path d="M30.5155 22.7241C30.8932 21.9072 31.2094 21.0552 31.4466 20.1768C31.4554 20.1592 31.4554 20.1416 31.4642 20.1241C31.8155 18.8065 32 17.4274 32 16.0044C32 12.2097 30.6736 8.72248 28.4601 5.9731C28.4337 5.9204 28.3898 5.87648 28.3459 5.83256C27.7398 5.0947 27.0722 4.41834 26.3431 3.80346C26.308 3.75954 26.2641 3.7244 26.2114 3.69805C24.2613 2.0818 21.9336 0.913533 19.3687 0.360143C18.8943 0.245951 18.3761 0.166895 17.8227 0.105408C17.2341 0.0351359 16.6193 0 16.0044 0C15.3807 0 14.7746 0.0351359 14.1685 0.105408C13.6239 0.158111 13.1057 0.245951 12.6226 0.360143C10.0664 0.913533 7.73868 2.07302 5.79742 3.68927C5.74472 3.7244 5.69201 3.75954 5.64809 3.81224C4.92781 4.42712 4.26022 5.10349 3.65413 5.83256C3.61021 5.86769 3.57508 5.9204 3.53994 5.9731C1.32638 8.72248 0 12.2097 0 16.0044C0 17.4274 0.184463 18.8153 0.544606 20.1329C0.544606 20.1504 0.55339 20.168 0.562174 20.1856C0.799341 21.064 1.11556 21.916 1.49327 22.7329C1.50206 22.7593 1.51084 22.7856 1.51963 22.8032C1.52841 22.812 1.52841 22.8208 1.53719 22.8295C4.10211 28.2492 9.62723 32.0088 16.0044 32.0088C22.3903 32.0088 27.9067 28.2492 30.4716 22.8295C30.4804 22.8208 30.4804 22.812 30.4892 22.8032C30.4979 22.7768 30.5067 22.7505 30.5155 22.7241ZM14.0807 1.17705C14.678 1.10678 15.328 1.07164 16.0044 1.07164C16.5929 1.07164 17.1551 1.08921 17.6909 1.14192C17.7436 1.1507 17.7963 1.1507 17.8402 1.15948C17.8666 1.15948 17.8842 1.16827 17.9017 1.16827C18.3321 1.22097 18.7538 1.30003 19.1754 1.38787C18.8504 2.0291 17.2693 2.75817 15.9956 3.12709C14.7219 2.75817 13.1408 2.0291 12.8158 1.38787C13.2374 1.30881 13.6591 1.22976 14.0807 1.17705ZM13.3956 30.6473C13.6942 30.2256 14.6604 29.6635 15.9956 29.277C17.3396 29.6635 18.297 30.2256 18.5957 30.6473C17.849 30.8142 16.9618 30.902 15.9868 30.8932C15.0382 30.902 14.151 30.823 13.3956 30.6473ZM19.6937 30.4804C19.5092 29.9094 18.9382 29.3912 17.9808 28.9168C17.1287 28.4952 16.2416 28.2492 16.1362 28.2229L15.9956 28.1878L15.8551 28.2229C15.7584 28.2492 14.8713 28.4952 14.0104 28.9168C13.053 29.3912 12.482 29.9094 12.2976 30.4804C8.09882 29.4087 4.61158 26.5627 2.67911 22.7856L5.9731 21.0903C6.22783 20.9586 6.33324 20.6423 6.20148 20.3788C6.06972 20.1241 5.7535 20.0187 5.48998 20.1504L2.23991 21.8282C2.0291 21.3275 1.84463 20.8092 1.68652 20.2822L3.40818 19.395C3.66292 19.2632 3.76832 18.947 3.63656 18.6835C3.5048 18.4288 3.18858 18.3234 2.92506 18.4551L1.40544 19.2369C1.17705 18.1916 1.05408 17.1112 1.05408 15.9956C1.05408 12.5523 2.22234 9.3725 4.18995 6.84271L10.0928 8.85424C10.1455 8.87181 10.207 8.88059 10.2597 8.88059C10.4793 8.88059 10.6813 8.74005 10.7604 8.52045C10.857 8.24815 10.7077 7.94949 10.4354 7.85287L4.91902 5.98188C5.3143 5.54269 5.73593 5.12984 6.18391 4.74334L9.6975 5.93796C9.75021 5.95553 9.81169 5.96432 9.8644 5.96432C10.084 5.96432 10.286 5.82377 10.3651 5.60417C10.4617 5.33187 10.3124 5.03322 10.0401 4.93659L7.15015 3.96157C8.53802 2.94263 10.1016 2.15207 11.7881 1.66017C12.3239 3.15345 15.2051 4.02306 15.8551 4.19874L15.9956 4.23387L16.1362 4.19874C16.7862 4.02306 19.6673 3.15345 20.2031 1.66017C21.8897 2.16086 23.462 2.94263 24.8411 3.96157L21.9599 4.94537C21.6876 5.042 21.5383 5.34065 21.6349 5.61296C21.714 5.83256 21.916 5.9731 22.1356 5.9731C22.1883 5.9731 22.2498 5.96432 22.3025 5.94675L25.8249 4.74334C26.2729 5.12984 26.6945 5.54269 27.0898 5.98188L21.5646 7.86165C21.2923 7.95828 21.143 8.25693 21.2396 8.52923C21.3187 8.74883 21.5207 8.88938 21.7403 8.88938C21.793 8.88938 21.8545 8.88059 21.9072 8.86303L27.81 6.8515C29.7777 9.38128 30.9459 12.5611 30.9459 16.0044C30.9459 17.12 30.8229 18.2004 30.5946 19.2457L29.0837 18.4639C28.829 18.3321 28.504 18.4288 28.3722 18.6923C28.2405 18.947 28.3371 19.272 28.6006 19.4038L30.3223 20.291C30.1642 20.818 29.9797 21.3363 29.7689 21.837L26.5188 20.1592C26.2641 20.0275 25.9391 20.1241 25.8073 20.3876C25.6755 20.6423 25.7722 20.9673 26.0357 21.0991L29.3209 22.7944C27.3796 26.5627 23.8924 29.4175 19.6937 30.4804Z" fill="white"/>
		<path d="M22.733 24.4721C21.8107 25.412 20.7654 25.6579 19.6235 25.1924C17.8843 24.4809 16.5403 22.3903 16.5403 21.0639C16.5403 20.7828 17.0234 20.0362 18.0687 19.2983L18.2971 19.1402V15.6179C18.2971 15.328 18.0599 15.0908 17.7701 15.0908C17.4802 15.0908 17.243 15.328 17.243 15.6179V17.8226H14.7572V15.6179C14.7572 15.328 14.52 15.0908 14.2301 15.0908C13.9403 15.0908 13.7031 15.328 13.7031 15.6179V19.1402L13.9315 19.2983C14.5727 19.7463 15.4599 20.6071 15.4599 21.0639C15.4599 22.3903 14.1159 24.4897 12.3767 25.1924C11.2348 25.6579 10.1895 25.4208 9.26719 24.4721C9.06516 24.2613 8.73137 24.2613 8.52056 24.4633C8.30974 24.6653 8.30974 24.9991 8.51177 25.2099C9.32868 26.0444 10.2773 26.4748 11.2875 26.4748C11.7794 26.4748 12.2801 26.3694 12.7808 26.1674C14.1159 25.6228 15.3457 24.3667 16.0045 23.0315C16.6633 24.3755 17.8931 25.6228 19.2282 26.1674C19.7289 26.3694 20.2296 26.4748 20.7215 26.4748C21.7229 26.4748 22.6715 26.0444 23.4972 25.2099C23.6993 24.9991 23.6993 24.6653 23.4884 24.4633C23.2688 24.2613 22.9351 24.2613 22.733 24.4721ZM15.1085 18.8679H16.9005C16.6106 19.1139 16.2768 19.4301 16.0045 19.7902C15.7322 19.4389 15.3896 19.1139 15.1085 18.8679Z" fill="white"/>
		<path d="M13.6064 14.0104C13.6064 14.3003 13.8436 14.5375 14.1335 14.5375H17.8579C18.1478 14.5375 18.3849 14.3003 18.3849 14.0104C18.3849 13.7206 18.1478 13.4834 17.8579 13.4834H14.1335C13.8436 13.4834 13.6064 13.7206 13.6064 14.0104Z" fill="white"/>
		<path d="M16.9881 12.9388C17.2779 12.9388 17.5151 12.7017 17.5151 12.4118C17.5151 12.1219 17.2779 11.8848 16.9881 11.8848H15.0204C14.7306 11.8848 14.4934 12.1219 14.4934 12.4118C14.4934 12.7017 14.7306 12.9388 15.0204 12.9388H16.9881Z" fill="white"/>
		<path d="M12.0164 14.7043C12.0164 12.7982 10.7867 11.1819 9.07381 10.5934C9.06502 10.5934 9.05624 10.5846 9.04745 10.5846L4.43587 9.0474C4.16357 8.95956 3.86491 9.10888 3.76829 9.38119C3.68045 9.65349 3.82978 9.95214 4.10208 10.0488L6.0082 10.6812C4.42709 11.3312 3.31152 12.886 3.31152 14.7043C3.31152 17.1023 5.26156 19.0523 7.65959 19.0523C10.0576 19.0523 12.0164 17.1023 12.0164 14.7043ZM7.66837 17.9983C5.85009 17.9983 4.37438 16.5226 4.37438 14.7043C4.37438 12.886 5.85009 11.4103 7.66837 11.4103C9.48665 11.4103 10.9624 12.886 10.9624 14.7043C10.9624 16.5226 9.47787 17.9983 7.66837 17.9983Z" fill="white"/>
		<path d="M7.66842 17.366C8.17295 17.366 8.58195 16.1744 8.58195 14.7045C8.58195 13.2346 8.17295 12.043 7.66842 12.043C7.16389 12.043 6.75488 13.2346 6.75488 14.7045C6.75488 16.1744 7.16389 17.366 7.66842 17.366Z" fill="white"/>
		<path d="M28.6883 14.7044C28.6883 12.8949 27.5728 11.3313 25.9916 10.6813L27.8978 10.0489C28.1701 9.96102 28.3194 9.66236 28.2316 9.38128C28.1437 9.10019 27.8451 8.95965 27.564 9.04748L22.9612 10.5847C22.9524 10.5847 22.9436 10.5935 22.9348 10.5935C21.2307 11.182 19.9922 12.7982 19.9922 14.7044C19.9922 17.1024 21.9422 19.0524 24.3403 19.0524C26.7383 19.0524 28.6883 17.1024 28.6883 14.7044ZM24.3403 17.9984C22.522 17.9984 21.0463 16.5226 21.0463 14.7044C21.0463 12.8861 22.522 11.4104 24.3403 11.4104C26.1585 11.4104 27.6343 12.8861 27.6343 14.7044C27.6343 16.5226 26.1498 17.9984 24.3403 17.9984Z" fill="white"/>
		<path d="M24.3403 17.366C24.8448 17.366 25.2538 16.1744 25.2538 14.7045C25.2538 13.2346 24.8448 12.043 24.3403 12.043C23.8358 12.043 23.4268 13.2346 23.4268 14.7045C23.4268 16.1744 23.8358 17.366 24.3403 17.366Z" fill="white"/>
		<path d="M11.163 23.8205C11.3221 23.6855 11.3416 23.4472 11.2066 23.2881C11.0716 23.1291 10.8332 23.1096 10.6742 23.2446C10.5152 23.3796 10.4957 23.6179 10.6306 23.777C10.7656 23.936 11.004 23.9555 11.163 23.8205Z" fill="white"/>
		<path d="M9.65986 23.1208C9.81889 22.9858 9.83839 22.7475 9.7034 22.5884C9.56842 22.4294 9.33006 22.4099 9.17102 22.5449C9.01198 22.6799 8.99248 22.9182 9.12747 23.0773C9.26246 23.2363 9.50082 23.2558 9.65986 23.1208Z" fill="white"/>
		<path d="M11.2487 22.2578C11.4078 22.1228 11.4273 21.8844 11.2923 21.7254C11.1573 21.5664 10.9189 21.5469 10.7599 21.6819C10.6009 21.8168 10.5814 22.0552 10.7163 22.2142C10.8513 22.3733 11.0897 22.3928 11.2487 22.2578Z" fill="white"/>
		<path d="M21.3694 23.7763C21.5044 23.6173 21.4849 23.3789 21.3259 23.2439C21.1668 23.1089 20.9285 23.1284 20.7935 23.2875C20.6585 23.4465 20.678 23.6849 20.837 23.8199C20.9961 23.9548 21.2344 23.9353 21.3694 23.7763Z" fill="white"/>
		<path d="M22.8685 23.0715C23.0034 22.9124 22.9839 22.6741 22.8249 22.5391C22.6659 22.4041 22.4275 22.4236 22.2925 22.5826C22.1575 22.7417 22.177 22.98 22.3361 23.115C22.4951 23.25 22.7335 23.2305 22.8685 23.0715Z" fill="white"/>
		<path d="M21.2793 22.2138C21.4143 22.0548 21.3948 21.8164 21.2358 21.6814C21.0767 21.5464 20.8384 21.5659 20.7034 21.725C20.5684 21.884 20.5879 22.1224 20.747 22.2574C20.906 22.3923 21.1443 22.3728 21.2793 22.2138Z" fill="white"/>
		<path d="M16.0045 11.2874C17.8403 11.2874 19.3248 9.79413 19.3248 7.96706C19.3248 6.13122 17.8315 4.64673 16.0045 4.64673C14.1774 4.64673 12.6841 6.14 12.6841 7.96706C12.6753 9.79413 14.1686 11.2874 16.0045 11.2874ZM16.0045 5.69202C17.2518 5.69202 18.2707 6.71096 18.2707 7.95828C18.2707 9.2056 17.2518 10.2245 16.0045 10.2245C14.7571 10.2245 13.7382 9.2056 13.7382 7.95828C13.7294 6.71096 14.7484 5.69202 16.0045 5.69202Z" fill="white"/>
		<path d="M16.0043 9.75914C16.3439 9.75914 16.6192 8.95293 16.6192 7.95843C16.6192 6.96392 16.3439 6.15771 16.0043 6.15771C15.6647 6.15771 15.3894 6.96392 15.3894 7.95843C15.3894 8.95293 15.6647 9.75914 16.0043 9.75914Z" fill="white"/>
	</g>
	<defs>
		<clipPath id="clip0">
			<rect class="rect" width="32" height="32" fill="white"/>
		</clipPath>
	</defs>
</svg>

<svg width="32" height="32" fill="none" xmlns="http://www.w3.org/2000/svg"><g clip-path="url(#clip0)" fill="#fff"><path d="M30.515 22.724c.378-.817.694-1.669.932-2.547.008-.018.008-.035.017-.053a15.96 15.96 0 00.536-4.12c0-3.794-1.326-7.282-3.54-10.03a.528.528 0 00-.114-.141 15.61 15.61 0 00-2.003-2.03.388.388 0 00-.132-.105A16.004 16.004 0 0019.37.36a12.618 12.618 0 00-1.546-.255 15.852 15.852 0 00-3.654 0c-.545.053-1.063.141-1.546.255a15.922 15.922 0 00-6.826 3.33.655.655 0 00-.149.122 16.662 16.662 0 00-1.994 2.02.622.622 0 00-.114.141A15.941 15.941 0 000 16.004a15.626 15.626 0 00.562 4.182c.237.878.554 1.73.931 2.547a.605.605 0 00.027.07c.008.009.008.018.017.026 2.565 5.42 8.09 9.18 14.467 9.18 6.386 0 11.903-3.76 14.468-9.18.008-.008.008-.017.017-.026l.026-.079zM14.081 1.177c.597-.07 1.247-.105 1.923-.105.589 0 1.151.017 1.687.07.053.009.105.009.15.017.026 0 .043.01.06.01.431.052.853.131 1.274.219-.325.641-1.906 1.37-3.18 1.74-1.273-.37-2.854-1.099-3.18-1.74.422-.08.844-.158 1.266-.21zm-.685 29.47c.298-.421 1.264-.983 2.6-1.37 1.344.386 2.301.949 2.6 1.37-.747.167-1.634.255-2.61.246-.948.009-1.835-.07-2.59-.246zm6.298-.167c-.185-.57-.756-1.089-1.713-1.563a10.885 10.885 0 00-1.845-.694l-.14-.035-.14.035c-.098.026-.985.272-1.846.694-.957.474-1.528.992-1.712 1.563a14.995 14.995 0 01-9.619-7.694l3.294-1.696a.532.532 0 00.228-.711.533.533 0 00-.711-.229l-3.25 1.678a15.38 15.38 0 01-.553-1.546l1.721-.887a.532.532 0 00.229-.712.533.533 0 00-.712-.228l-1.52.782a15.143 15.143 0 01-.35-3.241A14.86 14.86 0 014.19 6.843l5.903 2.011a.536.536 0 00.668-.334.526.526 0 00-.326-.667L4.92 5.982c.395-.44.817-.852 1.265-1.239l3.513 1.195a.536.536 0 00.668-.334.526.526 0 00-.325-.667l-2.89-.975a14.886 14.886 0 014.638-2.302c.536 1.493 3.417 2.363 4.067 2.539l.14.035.141-.035c.65-.176 3.531-1.046 4.067-2.539 1.687.5 3.259 1.283 4.638 2.302l-2.881.983a.526.526 0 00-.325.668.536.536 0 00.667.334l3.523-1.204c.448.387.87.8 1.265 1.239l-5.525 1.88a.526.526 0 00-.325.667.536.536 0 00.667.334l5.903-2.011a14.863 14.863 0 013.136 9.152c0 1.116-.123 2.196-.351 3.242l-1.511-.782a.527.527 0 10-.483.94l1.721.887a15.38 15.38 0 01-.553 1.546l-3.25-1.678a.527.527 0 10-.483.94l3.285 1.695c-1.941 3.769-5.429 6.623-9.627 7.686z"/><path d="M22.733 24.472c-.922.94-1.968 1.186-3.11.72-1.739-.711-3.083-2.802-3.083-4.128 0-.281.483-1.028 1.529-1.766l.228-.158v-3.522a.529.529 0 00-.527-.527.529.529 0 00-.527.527v2.205h-2.486v-2.205a.529.529 0 00-.527-.527.529.529 0 00-.527.527v3.522l.229.158c.64.448 1.528 1.31 1.528 1.766 0 1.326-1.344 3.426-3.083 4.128-1.142.466-2.188.229-3.11-.72a.528.528 0 10-.755.738c.817.834 1.765 1.265 2.775 1.265.492 0 .993-.106 1.494-.308 1.335-.544 2.565-1.8 3.223-3.136.66 1.345 1.89 2.592 3.224 3.136.5.202 1.002.308 1.493.308 1.002 0 1.95-.43 2.776-1.265a.527.527 0 00-.009-.747.538.538 0 00-.755.01zm-7.625-5.604h1.793a5.99 5.99 0 00-.896.922 6.92 6.92 0 00-.896-.922zm-1.502-4.858c0 .29.238.527.527.527h3.725c.29 0 .527-.237.527-.527a.529.529 0 00-.527-.527h-3.725a.529.529 0 00-.527.527zm3.382-1.071c.29 0 .527-.237.527-.527a.529.529 0 00-.527-.527H15.02a.529.529 0 00-.527.527c0 .29.238.527.527.527h1.968zm-4.972 1.765a4.35 4.35 0 00-2.942-4.11c-.009 0-.018-.01-.027-.01L4.436 9.048a.539.539 0 00-.668.334.539.539 0 00.334.668l1.906.632a4.35 4.35 0 001.652 8.371 4.36 4.36 0 004.356-4.348zm-4.348 3.294a3.295 3.295 0 010-6.588 3.295 3.295 0 013.294 3.294 3.3 3.3 0 01-3.294 3.294z"/><path d="M7.668 17.366c.505 0 .914-1.192.914-2.662s-.41-2.661-.914-2.661-.913 1.192-.913 2.662.409 2.661.913 2.661zm21.02-2.662a4.358 4.358 0 00-2.696-4.023l1.906-.632a.531.531 0 00.334-.668.524.524 0 00-.668-.334l-4.603 1.538c-.009 0-.017.008-.026.008-1.704.589-2.943 2.205-2.943 4.111a4.352 4.352 0 004.348 4.348 4.352 4.352 0 004.348-4.348zm-4.348 3.294a3.295 3.295 0 113.294-3.294 3.3 3.3 0 01-3.294 3.294z"/><path d="M24.34 17.366c.505 0 .914-1.192.914-2.662s-.41-2.661-.914-2.661-.913 1.192-.913 2.662.409 2.661.913 2.661zM11.163 23.82a.378.378 0 10-.489-.575.378.378 0 00.489.575zm-1.503-.7a.378.378 0 10-.489-.575.378.378 0 00.489.576zm1.589-.862a.378.378 0 10-.489-.576.378.378 0 00.489.576zm10.121 1.518a.378.378 0 10-.577-.489.378.378 0 00.576.49zm1.499-.704a.378.378 0 10-.577-.49.378.378 0 00.576.49zm-1.589-.858a.378.378 0 10-.577-.49.378.378 0 00.576.49zm-5.275-10.927a3.323 3.323 0 003.32-3.32 3.323 3.323 0 00-3.32-3.32 3.329 3.329 0 00-3.32 3.32c-.01 1.827 1.484 3.32 3.32 3.32zm0-5.595a2.272 2.272 0 012.266 2.266 2.272 2.272 0 01-2.267 2.267 2.272 2.272 0 01-2.266-2.267 2.26 2.26 0 012.267-2.266z"/><path d="M16.004 9.76c.34 0 .615-.807.615-1.802 0-.994-.275-1.8-.615-1.8-.34 0-.615.806-.615 1.8 0 .995.276 1.801.615 1.801z"/></g><defs><clipPath id="clip0"><path class="rect" fill="#fff" d="M0 0h32v32H0z"/></clipPath></defs></svg>
